X: 8656
T: Cross Of Inverness, The
R: reel
M: 4/4
K: Gmajor
E|DB,B,D ECCB|cBAG FDDE|DB,B,D ECCE|DFAF G2GE|
DB,B,D ECCB|cBAG FDDC|B,DGD CEAG|FDEF G2G2||
g2 fg ecce|a2 ^ga fddc|Bgfg ecce|a^ga^c d2 d=c|
B/^c/d gd e=ccB|Aa^ga fdd=g|bgdg ecAc|BdAF G2G2||

